X: 1
T: Silver and Gold
M: 3/4
L: 1/4
K: C
"Cmaj7"E>FG|"Am7"C3|"Dm7"D>EF|"G9"B,3|
"C6"C>DE|"Am9"E"A7#5(b9)"FG|"Dm11"G>AG|"G9"D3"G7b9"x|
"Cmaj9"E>FG|"Em7"GEG|"Am"A3-|A3|
"D9"A>Bc|cBA|"G13"GF"C#dim7/G"E|"G9sus"D3"G9"x|
"Cmaj7"E>FG|"Am7"C3|"Dm7"D>EF|"G9"_B3|
"C6"C>DE|"Am9"E"A7#5(b9)"FG|"F6"A3-|"A7b5(b9)"A3"A7b9"x|
"D9"A>Bc|"D#dim7"cBA|"C2/E"Gc2|"A7b6(b9)"_E>"A7b9"=E-E|
"Dm11"G2G|"G9sus"F>"G7b9"B,-B,|"C"C3-|C3|]
